X:1
T:The Penitent’s Plea
T:The Penitent’s Plea
T:Herbert Howard Booth
T:Herbert Howard Booth, 1889
T:Public Domain Courtesy of the Cyber Hymnal™
T:Public Domain Courtesy of the Cyber Hymnal™
T:Public Domain Courtesy of the Cyber Hymnal™
C:Herbert Howard Booth
Z:Public Domain
Z:Courtesy of the Cyber Hymnal™
%%score ( 1 2 ) ( 3 4 )
L:1/8
Q:1/4=95
M:4/4
K:Ab
V:1 treble 
V:2 treble 
V:3 bass 
V:4 bass 
V:1
 [Ec]3 [Ec] [=D=B][Ec][F_d][Ec] | [Ec]3 [DB] [DE]4 | [DB]3 [DB] [C=A][DB][Ec][DB] | %3
w: 1.~Sav- ior, hear me, while be-|fore Thy feet|I the rec- ord of my|
w: 2.~All the mem- o- ries of|deeds gone by,|Rise with- in me and Thy|
w: 3.~Yet why should I fear, hast|Thou not died|That no seek- ing soul should|
w: 4.~All the riv- ers of Thy|grace I claim,|O- ver ev- ery pro- mise|
 [DB]3 [CA] [CE]4 | [FA]3 [FA] [=EG][FA][GB][FA] | f4 e4 | [GB]3 [GB] [^F=A][GB][_Ac][GB] | %7
w: sins re- peat,|Stained with guilt, my- self ab-|hor- ring,|Filled with grief, my soul out-|
w: power de- fy;|With a death- ly chill en-|snar- ing,|They would leave my soul des-|
w: be de- nied?|To that heart its sins con-|fess- ing,|Canst Thou fail to give a|
w: write my name;|As I am I come be-|liev- ing,|As Thou art Thou dost, re-|
 [Af]4 [Ge]4 | [Ec]3 [Ec] [=D=B][Ec][F_d][Ec] | [Ec]3 [DB] [DE]4 | [DB]3 [DB] [C=A][DB][Ec][DB] | %11
w: pour- ing;|Canst Thou still in mer- cy|think of me,|Stoop to set my shac- kled|
w: pair- ing.|Sav- ior, take my hand, I|can- not tell|How to stem the tides that|
w: bless- ing?|By the love and pi- ty|Thou hast shown,|By the blood that did for|
w: ceiv- ing,|Bid me rise a free and|par- doned slave;|Mas- ter o’er my sin, the|
 [DB]3 [CA] [CE]4 | A3 A [GB][Ac][Gd][_Ge] | f3 (z c) [ce]2 [Bd]2 | z x6 | z x6 | A6 z2 || %17
w: spir- it free,|Raise my sink- ing heart, and|bid * me be|||Thy|
w: round me swell,|How to ease my con- science|or * to quell|||My|
w: me a- tone,|Bold- ly will I kneel be-|fore * Thy throne,|||A|
w: world, the grave,|Charg- ing me to preach Thy|power * to save,|||To|
"^Refrain" [Ec]3 [Ec] [=D=B][Ec][F_d][Ec] | [DE]3 [B,G] [DB]4 | [Bd]3 [Bd] [=Ac][Bd][ce][Bd] | %20
w: child once more? * * *|||
w: flam- ing heart. * * *|||
w: plead- ing soul. * * *|||
w: sin- bound souls. * * *|||
 E3 [CA] [Ec]4 | [Ec]3 [CA] [DB][FA][EG][DF] | [CE]2 (Ac) [=Ae]2 [Bd]2 | z z x12 | A6 z2 |] %25
w: |||||
w: |||||
w: |||||
w: |||||
V:2
 x8 | x8 | x8 | x8 | x8 | (A3 d) (c3 A) | x8 | x8 | x8 | x8 | x8 | x8 | A3 A x4 | F2 (=A2 x5 | %14
 c4 (3E/=D/E/ F E) | B4 (3D/E/D/ C/D/E/D/ | (C2 =B,2 C2) x2 || x8 | x8 | x8 | E3 x5 | x8 | %22
 x2 =A2 x4 | c4 (3E/=D/E/ F E (B4 (3E/F/E/ C/D/E/)D/ | (C2 =B,2 C2) x2 |] %25
V:3
 (A,,E,A,)E, A,,E,A,E, | (E,,E,G,)E, (E,,E,G,E,) | (E,,E,G,)E, E,,E,G,E, | %3
w: ~ * * ~ ~ ~ ~ ~|~ * * ~ ~ * * *|~ * * ~ ~ ~ ~ ~|
 (A,,E,A,)E, (A,,E,A,E,) | (F,,F,[A,C])F, F,,F,[A,C]F, | %5
w: ~ * * ~ ~ * * *|~ * * ~ ~ ~ ~ ~|
 ([D,,D,][F,A,D] [F,A,D]2) (A,,[E,A,C] [E,A,C]2) | (E,,E,[G,B,])E, E,,E,[G,B,]E, | %7
w: ~ * * ~ * *|~ * * ~ ~ ~ ~ ~|
 (B,,F,B,=D) (ED/B,/G,/E,/=D,/B,,/) | (A,,E,A,)E, A,,E,A,E, | (E,,E,G,)E, (E,,E,G,E,) | %10
w: ~ * * * ~ * * * * * *|~ * * ~ ~ ~ ~ ~|~ * * ~ ~ * * *|
 (E,,E,G,)E, E,,E,G,E, | (A,,E,A,)E, (A,,E,A,E,) | %12
w: ~ * * ~ ~ ~ ~ ~|~ * * ~ ~ * * *|
 (A,,[E,A,C][E,A,C])[E,A,C] A,,[E,A,C][E,A,C][E,A,C] | %13
w: ~ * * ~ ~ ~ ~ ~|
 (D,[F,A,]) (C,[F,=A,C]) (B,,[F,B,D]) ([F,B,D][F,B,D]) x | (E,,E,[A,C]E,) x3 | (E,,E,[G,B,]E,) x3 | %16
w: ~ * ~ * ~ * ~ *|~ * * *|~ * * *|
 (A,2 =D,2 E,2) z2 || (A,,E,A,)E, A,,E,A,E, | (E,,G,,B,,)E, (G,B,G,E,) | %19
w: ~ * *|Grace * * there is my ev- ery|debt * * to pay, * * *|
 (E,,E,[G,B,])E, E,,E,[G,B,]E, | (C,,A,,C,)E, (A,CA,E,) | (A,,E,[A,C])E, D,,D,[F,A,]D, | %22
w: Blood * * to wash my ev- ery|sin * * a- way, * * *|Power * * to keep me sin- less|
 (A,,E,) ([A,C]E,) (C,[F,=A,C]) (B,,[F,B,D]) | (E,,E,[A,C]E,) (E,,E,[G,B,]E,) x6 | %24
w: day * by * day, * For *|me, * * * for * * *|
 (A,2 =D,2 E,2) z2 |] %25
w: me! * *|
V:4
 x8 | x8 | x8 | x8 | x8 | x8 | x8 | x8 | x8 | x8 | x8 | x8 | x8 | x9 | x7 | x7 | A,,6 x2 || x8 | %18
 x8 | x8 | x8 | x8 | x8 | x14 | A,,6 x2 |] %25

